assets/design/favicon.svg

<svg xmlns="http://www.w3.org/2000/svg" width="512" height="512" fill="none" viewBox="0 0 512 512"><rect width="512" height="512" fill="#022225" rx="128"/><path fill="#087e8b" d="M384.806 144.708v-14.393a14.717 14.717 0 0 0-14.717-14.717h-17.353a170.606 170.606 0 1 0 32.07 28.826zM169.116 294.07a29.68 29.68 0 0 1-27.419-18.321 29.68 29.68 0 0 1 6.433-32.342 29.68 29.68 0 0 1 32.343-6.434 29.68 29.68 0 0 1 9.628 48.404 29.68 29.68 0 0 1-20.985 8.693M256 371.548a29.676 29.676 0 0 1-29.107-35.468 29.67 29.67 0 0 1 8.122-15.195 29.67 29.67 0 0 1 32.342-6.433A29.677 29.677 0 0 1 256 371.548m86.195-77.478a29.676 29.676 0 0 1-29.107-35.468 29.67 29.67 0 0 1 8.122-15.195 29.672 29.672 0 0 1 45.661 4.497 29.676 29.676 0 0 1-24.676 46.166"/><path fill="#087e8b" fill-rule="evenodd" d="M256 56a200 200 0 1 0 200 200 200.24 200.24 0 0 0-58.65-141.35A200.24 200.24 0 0 0 256 56M149.395 415.595A191.9 191.9 0 0 0 256 447.932v-.041a192.14 192.14 0 0 0 135.617-56.274A192.14 192.14 0 0 0 447.891 256a191.891 191.891 0 1 0-298.496 159.595" clip-rule="evenodd"/></svg>

<svg width="512" height="512" viewBox="0 0 512 512" fill="none" xmlns="http://www.w3.org/2000/svg">
<rect width="512" height="512" rx="128" fill="#022225"/>
<path d="M384.806 144.708V130.315C384.806 126.412 383.255 122.669 380.495 119.909C377.735 117.149 373.992 115.598 370.089 115.598C365.345 115.598 357.926 115.598 352.736 115.598C317.07 90.9098 273.338 80.7344 230.436 87.1415C187.534 93.5486 148.684 116.057 121.787 150.089C94.89 184.121 81.9662 227.12 85.6441 270.342C89.322 313.563 109.326 353.761 141.586 382.759C173.847 411.756 215.942 427.377 259.309 426.443C302.677 425.509 344.06 408.091 375.042 377.731C406.025 347.371 424.279 306.349 426.093 263.01C427.906 219.67 413.143 177.267 384.806 144.424V144.708ZM169.116 294.07C163.246 294.07 157.508 292.329 152.628 289.068C147.747 285.807 143.943 281.172 141.697 275.749C139.451 270.326 138.863 264.359 140.008 258.602C141.153 252.845 143.98 247.557 148.13 243.407C152.281 239.256 157.569 236.43 163.326 235.285C169.083 234.139 175.05 234.727 180.473 236.973C185.896 239.22 190.531 243.023 193.792 247.904C197.053 252.784 198.793 258.522 198.793 264.392C198.793 272.263 195.667 279.812 190.101 285.377C184.535 290.943 176.987 294.07 169.116 294.07ZM256 371.548C250.13 371.548 244.392 369.807 239.512 366.546C234.631 363.285 230.828 358.65 228.581 353.227C226.335 347.804 225.747 341.837 226.893 336.08C228.038 330.323 230.864 325.035 235.015 320.885C239.165 316.734 244.453 313.908 250.21 312.763C255.967 311.618 261.934 312.205 267.357 314.452C272.78 316.698 277.415 320.502 280.676 325.382C283.937 330.263 285.678 336 285.678 341.87C285.678 349.741 282.551 357.29 276.985 362.855C271.42 368.421 263.871 371.548 256 371.548ZM342.195 294.07C336.325 294.07 330.587 292.329 325.707 289.068C320.826 285.807 317.023 281.172 314.776 275.749C312.53 270.326 311.942 264.359 313.088 258.602C314.233 252.845 317.059 247.557 321.21 243.407C325.36 239.256 330.648 236.43 336.405 235.285C342.162 234.139 348.129 234.727 353.552 236.973C358.975 239.22 363.61 243.023 366.871 247.904C370.132 252.784 371.873 258.522 371.873 264.392C371.873 272.263 368.746 279.812 363.18 285.377C357.615 290.943 350.066 294.07 342.195 294.07Z" fill="#087E8B"/>
<path fill-rule="evenodd" clip-rule="evenodd" d="M256 56C216.444 56 177.776 67.7298 144.886 89.7061C111.996 111.682 86.3617 142.918 71.2242 179.463C56.0867 216.008 52.126 256.222 59.843 295.018C67.5601 333.814 86.6082 369.451 114.579 397.421C142.549 425.392 178.186 444.44 216.982 452.157C255.778 459.874 295.992 455.913 332.537 440.776C369.082 425.638 400.318 400.004 422.294 367.114C444.27 334.224 456 295.556 456 256C455.936 202.976 434.844 152.143 397.35 114.65C359.857 77.1564 309.024 56.0644 256 56ZM149.395 415.595C180.951 436.679 218.049 447.932 256 447.932V447.891C306.873 447.827 355.644 427.589 391.617 391.617C427.589 355.644 447.827 306.873 447.891 256C447.883 218.049 436.622 180.953 415.532 149.402C394.442 117.851 364.47 93.262 329.406 78.7444C294.341 64.2268 255.76 60.4325 218.539 67.8413C181.318 75.25 147.131 93.5291 120.298 120.367C93.4657 147.205 75.1938 181.397 67.7929 218.619C60.392 255.841 64.1945 294.422 78.7195 329.483C93.2445 364.545 117.84 394.512 149.395 415.595Z" fill="#087E8B"/>
</svg>
